X: 3125
T: Beaulieu
R: reel
M: 4/4
K: Dmajor
AG|"D"FAdfa2 AG|FAdfa2cB|"A"Acef gecB|"Em"ABcA "A"BAAG|
"D"FAdfa2 AG|FAdfa2ef|"A"gfgf edce|1 "D"d6:|2 "D"d2de "D7"fg a2||
K:G
|:"G"b2b2 bagf|g2g2g2BA|GABd gfeg|"Am"f2e2A4|"D7"a2a2abga|
[1 "D7"f6ed|ffed ffed|"G"ed^ce "D7"dded:|2 "D7"f6e2|d2dd edef|"G"g6||

